X:500
T:Anderson’s Hornpipe. RH.500
R:march
S:Rev.R.Harrison’s MS,c1815,Cumbria
N:Barely a hornpipe..
O:England
A:Temple Sowerby,Cumbria
Z:vmp.Simon Wilson. Review PJH, 2008.
M:C|
L:1/8
Q:1/2=80
K:D
AB/c/|d2d>d d2Ad|f2f>f f2df|a2d’b bagf|e>fed dcBA|!
d2d>d d2Ad|f2f>f f2df|a2d’c’ bagf|egec d2:|!
|:d>e|f2B>c d2d>e|f2B>c d2d>e|f2b2 a/b/a/g/ f/g/f/e/|d>be>c A2d>e|!
fBBc dcde|fBBc dcde|f2b2 a/b/a/g/ f/g/f/e/|d2f/g/f/e/ d2:|!
|:A>A|d2A>d f2d>f|a2d’>c’b2a2|fafa eaea|d>efd dcBA|!
d2A>d f2d>f|a2d’>c’ b2a2|dfeg faeg|d2f/g/f/e/ d2:|!
|:d2|f>ede fagb|f>ede f3f|e>dcd ea^ga|e>dcB A3A|!
BABc dcde|fefg agaf|b^abc’ d’c’ba|b2f2 B2:|

